X:1
L:1/8
M:4/4
K:C
[M:6/8][K:Amin] ue""^3"" |: .AB | c2 c B2 B | A2 A c2 c | B2 B A2 A | [EB]2 [EB] A2 E | A2 A A2 B | 
 c2 d e3 | cBA B2 c | A3- A2 c | e3- e2 c | A3- A2 c | e2 f e2 c | A z2 d3 | cBA B2 c | A3- A :| 
 AB |: c2 c B2 B | A2 A c2 c | B2 B A2 A | E2 B A2 E | A2 A A2 B | c2 d e3 | cBA B2 c | A3- A2 c | 
 e3- e2 c | A3- A2 c | e2 f e2 c | A z2 d3 | cBA B2 c |1 A3- AAB :|2 A3- Aef |:[K:Emin] ef | 
 g2 g a2 f | e3- e2 f | g2 g a2 f | e3- e2 f | g2 g a2 f | e2 f g2 e | d2 e d2 c | B6 | B>cB B2 A | 
 G2 A B3 | B>cB B2 A | G2 A B2 e | g2 f e2 ^d | e3- e ::[K:A] z e | A2 A A2 c | e2- e- e2 c | 
 B2 B B2 B | c3 A2 E | A2 A ABc | e2- e- e2 c | B2 B B2 B | c3 A3 | d2 c def | e2 c e2 e | 
 d2 e f2 f | e3- e2 e | d2 c B2 c | A3- A :|
